X:14
T: Ritter und Magd
N: Q1055M
O: Osteuropa, Tschechoslowakei, Boehmen
N: Melodievergleich zu Q0055B, D, und E; anderes Lied.
R: geistlich
M: 3/2
L: 1/4
K: G
GGG | c3ABc | d2z
ddd | g2efe2 | d2z
ddd | e3dcB | A2z
ddd | c2dBA2 | G3

@@@ Tune index: 890
